X: 18732
T: Iceberg Vodka
R: polka
M: 2/4
K: Amixolydian
|:G/A/B AA|GE AA|B/c/d eg|e^d e2|
G/A/B AA|GE AA|B/c/d BA|GE A2:|
|:e2 f>g|f/e/d/c/ A2|BG BG|A/B/A/G/ E2|
e2 f>g|f/e/d/c/ A2|dB dB|c/d/c/B/ A2:|

